src/assets/bold/lm-logo-templates-bold.svg

<svg width="24" height="24" viewBox="0 0 24 24" fill="none" xmlns="http://www.w3.org/2000/svg" fill="currentColor">
<path d="M5.99998 4.65001H11.35V8.35001H4.64998V6.00001C4.64998 5.64196 4.79221 5.29859 5.04538 5.04541C5.29856 4.79224 5.64193 4.65001 5.99998 4.65001ZM5.99998 3.35001C5.29715 3.35001 4.62311 3.6292 4.12614 4.12617C3.62917 4.62314 3.34998 5.29718 3.34998 6.00001V18C3.34998 18.7028 3.62917 19.3769 4.12614 19.8738C4.62311 20.3708 5.29715 20.65 5.99998 20.65H18C18.7028 20.65 19.3768 20.3708 19.8738 19.8738C20.3708 19.3769 20.65 18.7028 20.65 18V6.00001C20.65 5.29718 20.3708 4.62314 19.8738 4.12617C19.3768 3.6292 18.7028 3.35001 18 3.35001H5.99998ZM12.65 4.65001H18C18.358 4.65001 18.7014 4.79224 18.9546 5.04541C19.2077 5.29859 19.35 5.64196 19.35 6.00001V14.35H12.65V4.65001ZM19.35 15.65V18C19.35 18.358 19.2077 18.7014 18.9546 18.9546C18.7014 19.2078 18.358 19.35 18 19.35H12.65V15.65H19.35ZM11.35 19.35H5.99998C5.64193 19.35 5.29856 19.2078 5.04538 18.9546C4.79221 18.7014 4.64998 18.358 4.64998 18V9.65001H11.35V19.35Z" fill="black"/>
</svg>

<svg xmlns="http://www.w3.org/2000/svg" width="24" height="24" fill="currentColor" viewBox="0 0 24 24">
  <path d="M6 4.65h5.35v3.7h-6.7V6A1.35 1.35 0 0 1 6 4.65Zm0-1.3A2.65 2.65 0 0 0 3.35 6v12A2.65 2.65 0 0 0 6 20.65h12A2.65 2.65 0 0 0 20.65 18V6A2.65 2.65 0 0 0 18 3.35H6Zm6.65 1.3H18A1.35 1.35 0 0 1 19.35 6v8.35h-6.7v-9.7Zm6.7 11V18A1.35 1.35 0 0 1 18 19.35h-5.35v-3.7h6.7Zm-8 3.7H6A1.35 1.35 0 0 1 4.65 18V9.65h6.7v9.7Z"/>
</svg>
